; generated by Slic3r 1.3.0 on 2019-05-14 at 12:36:43

; external perimeters extrusion width = 0.55mm (5.57mm^3/s)
; perimeters extrusion width = 0.58mm (11.78mm^3/s)
; infill extrusion width = 0.58mm (15.71mm^3/s)
; solid infill extrusion width = 0.58mm (3.93mm^3/s)
; top infill extrusion width = 0.58mm (2.95mm^3/s)

M107
M104 S210 T0 ; set temperature
M104 S210 T2 ; set temperature
G28 ; home all axes
G1 Z5 F5000 ; lift nozzle

; Filament gcode

M109 S210 T0 ; set temperature and wait for it to be reached
M109 S210 T2 ; set temperature and wait for it to be reached
G21 ; set units to millimeters
G90 ; use absolute coordinates
M82 ; use absolute distances for extrusion
G92 E0
T0
G92 E0
G1 Z0.500 F7800.000
G1 E-2.00000 F2400.00000
G92 E0
G1 X93.359 Y89.739 F7800.000
G1 E2.00000 F2400.00000
G1 F1800
G1 X93.585 Y89.513 E2.02018
G1 X94.305 Y88.876 E2.08091
G1 X95.131 Y88.282 E2.14510
G1 X95.820 Y87.881 E2.19546
G1 X96.066 Y87.756 E2.21294
G1 X96.861 Y87.413 E2.26759
G1 X97.112 Y87.323 E2.28443
G1 X97.999 Y87.071 E2.34267
G1 X98.254 Y87.016 E2.35911
G1 X99.204 Y86.882 E2.41970
G1 X99.460 Y86.864 E2.43592
G1 X100.435 Y86.864 E2.49745
G1 X100.690 Y86.882 E2.51363
G1 X101.641 Y87.016 E2.57429
G1 X101.896 Y87.071 E2.59075
G1 X102.783 Y87.323 E2.64894
G1 X103.034 Y87.413 E2.66579
G1 X103.828 Y87.756 E2.72043
G1 X104.075 Y87.881 E2.73791
G1 X105.006 Y88.443 E2.80653
G1 X105.824 Y89.069 E2.87162
G1 X106.536 Y89.739 E2.93335
G1 X111.026 Y94.581 E3.35032
G1 X111.613 Y95.305 E3.40915
G1 X112.065 Y95.997 E3.46139
G1 X112.565 Y96.997 E3.53197
G1 X112.633 Y97.165 E3.54340
G1 X112.984 Y98.303 E3.61859
G1 X113.168 Y99.538 E3.69745
G1 X113.168 Y100.640 E3.76707
G1 X112.984 Y101.876 E3.84594
G1 X112.943 Y102.045 E3.85693
G1 X112.633 Y103.013 E3.92115
G1 X112.160 Y104.016 E3.99111
G1 X111.613 Y104.874 E4.05539
G1 X111.026 Y105.598 E4.11421
G1 X106.536 Y110.439 E4.53119
G1 X105.824 Y111.109 E4.59292
G1 X105.006 Y111.736 E4.65800
G1 X104.764 Y111.896 E4.67629
G1 X103.829 Y112.423 E4.74411
G1 X103.034 Y112.765 E4.79875
G1 X102.783 Y112.855 E4.81560
G1 X101.895 Y113.108 E4.87384
G1 X101.641 Y113.162 E4.89027
G1 X100.690 Y113.297 E4.95091
G1 X100.435 Y113.315 E4.96709
G1 X99.460 Y113.315 E5.02862
G1 X99.204 Y113.297 E5.04483
G1 X98.254 Y113.162 E5.10545
G1 X97.999 Y113.108 E5.12188
G1 X97.112 Y112.855 E5.18011
G1 X96.861 Y112.765 E5.19696
G1 X96.066 Y112.423 E5.25159
G1 X95.819 Y112.297 E5.26909
G1 X95.130 Y111.896 E5.31946
G1 X94.305 Y111.303 E5.38363
G1 X93.584 Y110.666 E5.44437
G1 X93.182 Y110.256 E5.48063
G1 X88.869 Y105.598 E5.88151
G1 X88.404 Y105.037 E5.92754
G1 X87.830 Y104.181 E5.99258
G1 X87.330 Y103.181 E6.06317
G1 X87.262 Y103.013 E6.07460
G1 X86.911 Y101.876 E6.14976
G1 X86.727 Y100.640 E6.22865
G1 X86.727 Y99.539 E6.29820
G1 X86.911 Y98.302 E6.37714
G1 X87.262 Y97.165 E6.45230
G1 X87.330 Y96.997 E6.46373
G1 X87.830 Y95.997 E6.53437
G1 X88.283 Y95.305 E6.58658
G1 X88.869 Y94.581 E6.64539
G1 X93.307 Y89.793 E7.05763
G1 E5.05763 F2400.00000
G92 E0
G1 X105.796 Y100.089 F7800.000
G1 E2.00000 F2400.00000
G1 F1800
G1 X105.770 Y100.258 E2.01081
G1 X105.657 Y100.489 E2.02698
G1 X105.458 Y100.728 E2.04667
G1 X105.153 Y100.981 E2.07166
G1 X104.745 Y101.230 E2.10185
G1 X104.242 Y101.464 E2.13686
G1 X103.656 Y101.673 E2.17616
G1 X102.700 Y101.934 E2.23875
G1 X102.418 Y103.062 E2.31222
G1 X102.152 Y103.810 E2.36235
G1 X101.830 Y104.472 E2.40880
G1 X101.659 Y104.752 E2.42951
G1 X101.286 Y105.234 E2.46801
G1 X101.093 Y105.428 E2.48530
G1 X100.898 Y105.590 E2.50130
G1 X100.703 Y105.719 E2.51607
G1 X100.510 Y105.817 E2.52973
G1 X100.320 Y105.885 E2.54248
G1 X100.133 Y105.925 E2.55456
G1 X99.947 Y105.938 E2.56630
G1 X99.762 Y105.925 E2.57803
G1 X99.575 Y105.885 E2.59011
G1 X99.385 Y105.817 E2.60286
G1 X99.192 Y105.719 E2.61653
G1 X98.997 Y105.590 E2.63130
G1 X98.802 Y105.428 E2.64729
G1 X98.608 Y105.234 E2.66459
G1 X98.236 Y104.752 E2.70308
G1 X98.065 Y104.472 E2.72379
G1 X97.743 Y103.810 E2.77024
G1 X97.477 Y103.062 E2.82038
G1 X97.195 Y101.934 E2.89384
G1 X96.239 Y101.673 E2.95643
G1 X95.652 Y101.464 E2.99574
G1 X95.150 Y101.230 E3.03074
G1 X94.742 Y100.981 E3.06093
G1 X94.437 Y100.728 E3.08592
G1 X94.237 Y100.489 E3.10561
G1 X94.125 Y100.258 E3.12179
G1 X94.099 Y100.089 E3.13259
G1 X94.125 Y99.920 E3.14340
G1 X94.237 Y99.690 E3.15958
G1 X94.437 Y99.450 E3.17926
G1 X94.742 Y99.198 E3.20425
G1 X95.150 Y98.949 E3.23444
G1 X95.652 Y98.715 E3.26945
G1 X96.239 Y98.505 E3.30876
G1 X97.195 Y98.245 E3.37135
G1 X97.477 Y97.116 E3.44481
G1 X97.743 Y96.368 E3.49494
G1 X98.065 Y95.707 E3.54140
G1 X98.236 Y95.427 E3.56210
G1 X98.608 Y94.944 E3.60060
G1 X98.802 Y94.750 E3.61789
G1 X98.997 Y94.589 E3.63389
G1 X99.192 Y94.460 E3.64866
G1 X99.385 Y94.362 E3.66232
G1 X99.575 Y94.294 E3.67507
G1 X99.761 Y94.254 E3.68707
G1 X99.956 Y94.241 E3.69943
G1 X100.133 Y94.254 E3.71062
G1 X100.320 Y94.294 E3.72270
G1 X100.510 Y94.362 E3.73545
G1 X100.703 Y94.460 E3.74911
G1 X100.898 Y94.589 E3.76388
G1 X101.093 Y94.750 E3.77988
G1 X101.286 Y94.944 E3.79717
G1 X101.659 Y95.427 E3.83567
G1 X101.830 Y95.707 E3.85638
G1 X102.152 Y96.368 E3.90283
G1 X102.418 Y97.116 E3.95296
G1 X102.700 Y98.245 E4.02643
G1 X103.656 Y98.505 E4.08901
G1 X104.242 Y98.715 E4.12832
G1 X104.745 Y98.949 E4.16333
G1 X105.153 Y99.198 E4.19352
G1 X105.458 Y99.450 E4.21851
G1 X105.657 Y99.690 E4.23820
G1 X105.770 Y99.920 E4.25437
G1 X105.790 Y100.014 E4.26047
G1 E2.26047 F2400.00000
G92 E0
G1 X103.659 Y98.989 F7800.000
G1 E2.00000 F2400.00000
G1 F1800
G1 X104.250 Y99.194 E2.04087
G1 X104.598 Y99.356 E2.06586
G1 X102.690 Y101.264 E2.24200
G1 E0.24200 F2400.00000
G92 E0
G1 X100.143 Y105.115 F7800.000
G1 E2.00000 F2400.00000
G1 F1800
G1 X100.962 Y104.297 E2.07556
G1 X101.270 Y103.897 E2.10848
G1 X101.393 Y103.696 E2.12393
G1 X101.675 Y103.117 E2.16594
G1 X101.910 Y102.457 E2.21169
G1 X102.047 Y101.906 E2.24873
G1 X98.948 Y105.006 E2.53487
G1 X98.625 Y104.592 E2.56912
G1 X98.422 Y104.226 E2.59643
G1 X103.659 Y98.989 E3.07987
G1 X102.633 Y98.710 E3.14928
G1 X98.039 Y103.304 E3.57335
G1 X97.985 Y103.151 E3.58393
G1 X97.766 Y102.272 E3.64305
G1 X102.130 Y97.908 E4.04593
G1 X101.910 Y97.027 E4.10520
G1 X101.856 Y96.877 E4.11564
G1 X97.264 Y101.469 E4.53959
G1 X96.238 Y101.190 E4.60899
G1 X101.474 Y95.954 E5.09232
G1 X101.270 Y95.587 E5.11976
G1 X100.948 Y95.174 E5.15389
G1 X97.847 Y98.276 E5.44023
G1 X97.985 Y97.722 E5.47752
G1 X98.220 Y97.062 E5.52326
G1 X98.495 Y96.497 E5.56425
G1 X98.779 Y96.067 E5.59787
G1 X99.070 Y95.747 E5.62615
G1 X99.767 Y95.050 E5.69047
G1 E3.69047 F2400.00000
G92 E0
G1 X98.541 Y97.582 F7800.000
G1 E2.00000 F2400.00000
G1 F1800
G1 X98.282 Y98.622 E2.06998
G1 X97.209 Y98.914 E2.14254
G1 X95.299 Y100.823 E2.31885
M104 S200 T0 ; set temperature
M104 S200 T2 ; set temperature
G1 Z0.900 F7800.000
G1 X106.022 Y100.089 F7800.000
G1 F900
G1 X105.983 Y100.335 E2.32538
G1 X105.848 Y100.612 E2.33347
G1 X105.618 Y100.888 E2.34292
G1 X105.284 Y101.164 E2.35429
G1 X104.852 Y101.428 E2.36761
G1 X104.328 Y101.672 E2.38277
G1 X103.724 Y101.888 E2.39963
G1 X102.886 Y102.116 E2.42243
G1 X102.634 Y103.127 E2.44981
G1 X102.360 Y103.898 E2.47128
G1 X102.028 Y104.580 E2.49121
G1 X101.654 Y105.146 E2.50903
G1 X101.453 Y105.386 E2.51726
G1 X101.245 Y105.595 E2.52499
G1 X101.032 Y105.771 E2.53224
G1 X100.816 Y105.914 E2.53904
G1 X100.599 Y106.024 E2.54543
G1 X100.382 Y106.102 E2.55150
G1 X100.164 Y106.148 E2.55734
G1 X99.947 Y106.164 E2.56305
G1 X99.731 Y106.148 E2.56877
G1 X99.513 Y106.102 E2.57460
G1 X99.296 Y106.024 E2.58067
G1 X99.078 Y105.914 E2.58707
G1 X98.863 Y105.771 E2.59387
G1 X98.650 Y105.595 E2.60112
G1 X98.442 Y105.386 E2.60885
G1 X98.241 Y105.146 E2.61708
G1 X97.867 Y104.580 E2.63490
G1 X97.535 Y103.898 E2.65483
G1 X97.261 Y103.127 E2.67630
G1 X97.009 Y102.116 E2.70368
G1 X96.171 Y101.888 E2.72648
G1 X95.567 Y101.672 E2.74333
G1 X95.043 Y101.428 E2.75850
G1 X94.611 Y101.164 E2.77181
G1 X94.277 Y100.888 E2.78318
G1 X94.047 Y100.612 E2.79264
G1 X93.912 Y100.335 E2.80072
G1 X93.873 Y100.089 E2.80725
G1 X93.912 Y99.844 E2.81379
G1 X94.047 Y99.567 E2.82187
G1 X94.277 Y99.290 E2.83133
G1 X94.611 Y99.014 E2.84270
G1 X95.043 Y98.750 E2.85601
G1 X95.567 Y98.507 E2.87118
G1 X96.171 Y98.291 E2.88803
G1 X97.009 Y98.062 E2.91083
G1 X97.261 Y97.051 E2.93821
G1 X97.535 Y96.281 E2.95968
G1 X97.867 Y95.599 E2.97961
G1 X98.241 Y95.032 E2.99743
G1 X98.442 Y94.792 E3.00566
G1 X98.650 Y94.584 E3.01339
G1 X98.863 Y94.408 E3.02064
G1 X99.078 Y94.265 E3.02744
G1 X99.296 Y94.155 E3.03384
G1 X99.513 Y94.077 E3.03991
G1 X99.729 Y94.031 E3.04569
G1 X99.974 Y94.017 E3.05214
G1 X100.164 Y94.030 E3.05716
G1 X100.382 Y94.077 E3.06300
G1 X100.599 Y94.155 E3.06907
G1 X100.816 Y94.265 E3.07547
G1 X101.032 Y94.408 E3.08227
G1 X101.245 Y94.584 E3.08951
G1 X101.453 Y94.792 E3.09725
G1 X101.654 Y95.032 E3.10547
G1 X102.028 Y95.599 E3.12329
G1 X102.360 Y96.281 E3.14323
G1 X102.634 Y97.051 E3.16470
G1 X102.886 Y98.062 E3.19208
G1 X103.724 Y98.291 E3.21488
G1 X104.328 Y98.507 E3.23173
G1 X104.852 Y98.750 E3.24690
G1 X105.284 Y99.014 E3.26021
G1 X105.618 Y99.290 E3.27158
G1 X105.848 Y99.567 E3.28103
G1 X105.983 Y99.844 E3.28912
G1 X106.016 Y100.014 E3.29369
G1 X105.683 Y100.427 F7800.000
G1 F1200
G1 X104.079 Y98.822 E3.35904
G1 X103.388 Y98.562 E3.38031
G1 X102.990 Y98.454 E3.39217
G1 X105.359 Y100.823 E3.48866
G1 X105.193 Y100.960 E3.49487
G1 X104.935 Y101.118 E3.50359
G1 X98.677 Y94.860 E3.75846
G1 X98.439 Y95.131 E3.76885
G1 X98.355 Y95.258 E3.77323
G1 X104.455 Y101.358 E4.02168
G1 X103.935 Y101.558 E4.03774
G1 X98.074 Y95.697 E4.27643
G1 X97.839 Y96.181 E4.29194
G1 X103.380 Y101.723 E4.51765
G1 X102.815 Y101.877 E4.53453
G1 X97.640 Y96.702 E4.74527
G1 X97.534 Y97.000 E4.75438
G1 X97.471 Y97.253 E4.76188
G1 X102.568 Y102.349 E4.96946
G1 X102.424 Y102.925 E4.98655
G1 X97.327 Y97.829 E5.19413
G1 X97.219 Y98.264 E5.20704
G1 X97.080 Y98.302 E5.21117
G1 X102.255 Y103.476 E5.42191
G1 X102.056 Y103.997 E5.43798
G1 X96.515 Y98.456 E5.66369
G1 X95.960 Y98.621 E5.68035
G1 X101.821 Y104.482 E5.91905
G1 X101.540 Y104.920 E5.93405
G1 X95.439 Y98.820 E6.18251
G1 X94.960 Y99.061 E6.19795
G1 X101.218 Y105.318 E6.45282
G1 X101.109 Y105.427 E6.45725
G1 X100.825 Y105.645 E6.46757
G1 X97.387 Y102.207 E6.60757
G1 X97.534 Y102.796 E6.62506
G1 X97.688 Y103.228 E6.63824
G1 X100.313 Y105.853 E6.74517
G1 X100.138 Y105.869 E6.75023
G1 X99.989 Y105.859 E6.75453
G1 X99.679 Y105.769 E6.76384
G1 X99.514 Y105.685 E6.76917
G1 X99.168 Y105.428 E6.78158
G1 X98.730 Y104.990 E6.79943
G1 X96.905 Y101.725 F7800.000
G1 F1200
G1 X94.536 Y99.356 E6.89592
G1 X94.430 Y99.444 E6.89988
G1 X94.266 Y99.641 E6.90727
G1 X94.212 Y99.752 E6.91082
G1 X95.816 Y101.356 E6.97617
G1 X95.463 Y101.192 E6.98738
G1 X95.084 Y100.960 E7.00019
G1 X94.812 Y100.735 E7.01036
G1 X94.648 Y100.538 E7.01774
G1 X94.570 Y100.379 E7.02284
G1 X94.554 Y100.280 E7.02572
G1 X94.594 Y100.133 E7.03009
G1 X100.781 Y94.804 F7800.000
G1 F1200
G1 X100.727 Y94.751 E7.03228
G1 X101.162 Y95.186 E7.05003
G1 X102.207 Y96.951 F7800.000
G1 F1200
G1 X99.582 Y94.325 E7.15696
G1 X99.297 Y94.409 E7.16552
G1 X99.070 Y94.534 E7.17296
G1 X102.508 Y97.971 E7.31296
G1 X102.676 Y98.646 E7.33299
G1 X103.372 Y98.835 E7.35376
G1 Z1.300 F7800.000
G1 X106.022 Y100.089 F7800.000
G1 F900
G1 X105.983 Y100.335 E7.36029
G1 X105.848 Y100.612 E7.36838
G1 X105.618 Y100.888 E7.37783
G1 X105.284 Y101.164 E7.38920
G1 X104.852 Y101.428 E7.40252
G1 X104.328 Y101.672 E7.41768
G1 X103.724 Y101.888 E7.43453
G1 X102.886 Y102.116 E7.45733
G1 X102.634 Y103.127 E7.48472
G1 X102.360 Y103.898 E7.50619
G1 X102.028 Y104.580 E7.52612
G1 X101.654 Y105.146 E7.54394
G1 X101.453 Y105.386 E7.55217
G1 X101.245 Y105.595 E7.55990
G1 X101.032 Y105.771 E7.56715
G1 X100.816 Y105.914 E7.57394
G1 X100.599 Y106.024 E7.58034
G1 X100.382 Y106.102 E7.58641
G1 X100.164 Y106.148 E7.59225
G1 X99.947 Y106.164 E7.59796
G1 X99.731 Y106.148 E7.60367
G1 X99.513 Y106.102 E7.60951
G1 X99.296 Y106.024 E7.61558
G1 X99.078 Y105.914 E7.62198
G1 X98.863 Y105.771 E7.62878
G1 X98.650 Y105.595 E7.63603
G1 X98.442 Y105.386 E7.64376
G1 X98.241 Y105.146 E7.65198
G1 X97.867 Y104.580 E7.66980
G1 X97.535 Y103.898 E7.68974
G1 X97.261 Y103.127 E7.71121
G1 X97.009 Y102.116 E7.73859
G1 X96.171 Y101.888 E7.76139
G1 X95.567 Y101.672 E7.77824
G1 X95.043 Y101.428 E7.79341
G1 X94.611 Y101.164 E7.80672
G1 X94.277 Y100.888 E7.81809
G1 X94.047 Y100.612 E7.82754
G1 X93.912 Y100.335 E7.83563
G1 X93.873 Y100.089 E7.84216
G1 X93.912 Y99.844 E7.84870
G1 X94.047 Y99.567 E7.85678
G1 X94.277 Y99.290 E7.86624
G1 X94.611 Y99.014 E7.87761
G1 X95.043 Y98.750 E7.89092
G1 X95.567 Y98.507 E7.90609
G1 X96.171 Y98.291 E7.92294
G1 X97.009 Y98.062 E7.94574
G1 X97.261 Y97.051 E7.97312
G1 X97.535 Y96.281 E7.99459
G1 X97.867 Y95.599 E8.01452
G1 X98.241 Y95.032 E8.03234
G1 X98.442 Y94.792 E8.04057
G1 X98.650 Y94.584 E8.04830
G1 X98.863 Y94.408 E8.05555
G1 X99.078 Y94.265 E8.06235
G1 X99.296 Y94.155 E8.06875
G1 X99.513 Y94.077 E8.07482
G1 X99.728 Y94.031 E8.08058
G1 X99.989 Y94.018 E8.08745
G1 X100.164 Y94.030 E8.09207
G1 X100.382 Y94.077 E8.09790
G1 X100.599 Y94.155 E8.10397
G1 X100.816 Y94.265 E8.11037
G1 X101.032 Y94.408 E8.11717
G1 X101.245 Y94.584 E8.12442
G1 X101.453 Y94.792 E8.13215
G1 X101.654 Y95.032 E8.14038
G1 X102.028 Y95.599 E8.15820
G1 X102.360 Y96.281 E8.17813
G1 X102.634 Y97.051 E8.19960
G1 X102.886 Y98.062 E8.22698
G1 X103.724 Y98.291 E8.24978
G1 X104.328 Y98.507 E8.26663
G1 X104.852 Y98.750 E8.28180
G1 X105.284 Y99.014 E8.29512
G1 X105.618 Y99.290 E8.30649
G1 X105.848 Y99.567 E8.31594
G1 X105.983 Y99.844 E8.32402
G1 X106.016 Y100.014 E8.32860
G1 X104.079 Y101.356 F7800.000
G1 F1200
G1 X105.683 Y99.752 E8.39394
G1 X105.629 Y99.641 E8.39750
G1 X105.465 Y99.444 E8.40488
G1 X105.359 Y99.356 E8.40884
G1 X102.990 Y101.725 E8.50533
G1 X102.294 Y101.914 E8.52610
G1 X102.126 Y102.589 E8.54613
G1 X102.508 Y102.207 F7800.000
G1 F1200
G1 X99.070 Y105.645 E8.68613
G1 X99.297 Y105.769 E8.69357
G1 X99.582 Y105.853 E8.70213
G1 X102.207 Y103.228 E8.80906
G1 X102.103 Y103.519 E8.81797
G1 X101.797 Y104.149 E8.83814
G1 X101.456 Y104.665 E8.85597
G1 X101.286 Y104.868 E8.86359
G1 X100.727 Y105.428 E8.88638
G1 X98.677 Y105.318 F7800.000
G1 F1200
G1 X104.935 Y99.061 E9.14125
G1 X104.455 Y98.820 E9.15669
G1 X98.355 Y104.920 E9.40514
G1 X98.074 Y104.482 E9.42015
G1 X103.935 Y98.621 E9.65885
G1 X103.380 Y98.456 E9.67551
G1 X97.839 Y103.997 E9.90122
G1 X97.640 Y103.476 E9.91728
G1 X102.814 Y98.302 E10.12803
G1 X102.676 Y98.264 E10.13215
G1 X102.568 Y97.829 E10.14507
G1 X97.471 Y102.925 E10.35265
G1 X97.327 Y102.349 E10.36974
G1 X102.424 Y97.253 E10.57732
G1 X102.361 Y97.000 E10.58482
G1 X102.255 Y96.702 E10.59393
G1 X97.080 Y101.877 E10.80467
G1 X96.515 Y101.723 E10.82155
G1 X102.056 Y96.181 E11.04726
G1 X101.821 Y95.697 E11.06276
G1 X95.960 Y101.558 E11.30146
G1 X95.439 Y101.358 E11.31751
G1 X101.544 Y95.254 E11.56615
G1 X101.218 Y94.860 E11.58087
G1 X94.960 Y101.118 E11.83574
G1 X94.702 Y100.960 E11.84446
G1 X94.536 Y100.823 E11.85067
G1 X96.905 Y98.454 E11.94716
G1 X96.507 Y98.562 E11.95902
G1 X95.816 Y98.822 E11.98030
G1 X94.212 Y100.427 E12.04564
G1 X94.173 Y100.280 E12.05002
G1 X94.188 Y100.182 E12.05289
G1 X94.266 Y100.022 E12.05799
G1 X94.430 Y99.825 E12.06537
G1 X94.702 Y99.600 E12.07554
G1 X95.081 Y99.368 E12.08835
G1 X95.434 Y99.204 E12.09956
G1 X97.387 Y97.971 F7800.000
G1 F1200
G1 X100.825 Y94.534 E12.23957
G1 X100.598 Y94.409 E12.24701
G1 X100.313 Y94.325 E12.25556
G1 X97.688 Y96.951 E12.36250
G1 X97.791 Y96.660 E12.37140
G1 X98.098 Y96.030 E12.39158
